configs/network-icons/stability-short-dark.svg

<svg width="30" height="30" viewBox="0 0 30 30" fill="none" xmlns="http://www.w3.org/2000/svg">
<g clip-path="url(#clip0_10910_14713)">
<path fill-rule="evenodd" clip-rule="evenodd" d="M14.9233 16.2911L27.4598 23.3474L14.9229 30.3436L2.38635 23.3294L14.9233 16.2911ZM3.61359 23.3285L14.9233 29.6563L26.2326 23.3452L14.9229 16.9794L3.61359 23.3285Z" fill="white"/>
<path d="M3 6.69348L14.9231 13.3482V26.6034L3 20.0744V6.69348Z" fill="#3E7CB1"/>
<path d="M26.8465 6.71106L14.9233 13.3647V26.6209L26.8465 20.092V6.71106Z" fill="#30C5FF"/>
<path d="M3 6.69373L14.9231 0L26.8462 6.71108L14.9231 13.3647L3 6.69373Z" fill="#41EEF9"/>
</g>
<defs>
<clipPath id="clip0_10910_14713">
<rect width="30" height="30" fill="white"/>
</clipPath>
</defs>
</svg>

<svg xmlns="http://www.w3.org/2000/svg" fill="none" viewBox="0 0 30 30">
  <g clip-path="url(#stability-short-dark_svg__a)">
    <path fill="#fff" fill-rule="evenodd" d="m14.923 16.291 12.537 7.056-12.537 6.997-12.537-7.015 12.537-7.038Zm-11.31 7.037 11.31 6.328 11.31-6.31-11.31-6.367-11.31 6.35Z" clip-rule="evenodd"/>
    <path fill="#3E7CB1" d="m3 6.693 11.923 6.655v13.255L3 20.074V6.694Z"/>
    <path fill="#30C5FF" d="m26.846 6.711-11.923 6.654V26.62l11.923-6.529V6.712Z"/>
    <path fill="#41EEF9" d="M3 6.694 14.923 0l11.923 6.711-11.923 6.654L3 6.694Z"/>
  </g>
  <defs>
    <clipPath id="stability-short-dark_svg__a">
      <path fill="#fff" d="M0 0h30v30H0z"/>
    </clipPath>
  </defs>
</svg>
